dist/assets/img/persent.svg

<svg width="26" height="30" viewBox="0 0 26 30" fill="none" xmlns="http://www.w3.org/2000/svg">
<path d="M15.6 7.94118V0H7.8C6.36405 0 5.2 1.18512 5.2 2.64706V12.6542C7.15804 13.3588 8.57783 15.2234 8.66265 17.4371L11.1615 14.8929C12.1769 13.8592 13.8231 13.8592 14.8385 14.8929C15.8538 15.9266 15.8538 17.6028 14.8385 18.6365L12.3396 21.1805C15.1159 21.2908 17.3333 23.6171 17.3333 26.4706C17.3333 27.0893 17.229 27.6833 17.0375 28.2353H23.4C24.8359 28.2353 26 27.0501 26 25.5882V10.5882H18.2C16.7641 10.5882 15.6 9.40311 15.6 7.94118ZM6.93333 17.6471C6.93333 18.9535 6.23619 20.094 5.2 20.7042C4.69011 21.0046 4.0981 21.1765 3.46667 21.1765C1.55208 21.1765 0 19.5964 0 17.6471C0 15.6978 1.55208 14.1176 3.46667 14.1176C4.0981 14.1176 4.69011 14.2895 5.2 14.5899C6.23619 15.2001 6.93333 16.3406 6.93333 17.6471ZM5.2 17.6471C5.2 16.6724 4.42395 15.8824 3.46667 15.8824C2.50938 15.8824 1.73333 16.6724 1.73333 17.6471C1.73333 18.6217 2.50938 19.4118 3.46667 19.4118C4.42395 19.4118 5.2 18.6217 5.2 17.6471ZM3.21282 27.9769C2.87437 28.3214 2.32563 28.3214 1.98718 27.9769C1.64871 27.6323 1.64871 27.0736 1.98718 26.7289L12.3872 16.1407C12.6833 15.8393 13.1405 15.8015 13.4769 16.0278C13.5249 16.0601 13.5705 16.0976 13.6128 16.1407C13.9513 16.4854 13.9513 17.0441 13.6128 17.3887L3.21282 27.9769ZM8.66667 26.4706C8.66667 27.1135 8.83548 27.7161 9.13044 28.2353C9.72984 29.2902 10.8502 30 12.1333 30C13.4165 30 14.5368 29.2902 15.1362 28.2353C15.4312 27.7161 15.6 27.1135 15.6 26.4706C15.6 24.5213 14.0479 22.9412 12.1333 22.9412C10.2187 22.9412 8.66667 24.5213 8.66667 26.4706ZM12.1333 28.2353C11.176 28.2353 10.4 27.4452 10.4 26.4706C10.4 25.4959 11.176 24.7059 12.1333 24.7059C13.0906 24.7059 13.8667 25.4959 13.8667 26.4706C13.8667 27.4452 13.0906 28.2353 12.1333 28.2353ZM17.3333 7.94118V0.441176L25.5667 8.82353H18.2C17.7214 8.82353 17.3333 8.42848 17.3333 7.94118Z" fill="#201311"/>
</svg>

<svg width="26" height="30" fill="none" xmlns="http://www.w3.org/2000/svg"><path d="M15.6 7.941V0H7.8C6.364 0 5.2 1.185 5.2 2.647v10.007c1.958.705 3.378 2.57 3.463 4.783l2.498-2.544a2.568 2.568 0 013.678 0 2.681 2.681 0 010 3.744l-2.5 2.543c2.777.11 4.994 2.437 4.994 5.29 0 .62-.104 1.213-.295 1.765H23.4c1.436 0 2.6-1.185 2.6-2.647v-15h-7.8c-1.436 0-2.6-1.185-2.6-2.647zm-8.667 9.706A3.54 3.54 0 015.2 20.704c-.51.3-1.102.473-1.733.473-1.915 0-3.467-1.58-3.467-3.53 0-1.95 1.552-3.53 3.467-3.53.631 0 1.223.172 1.733.473a3.54 3.54 0 011.733 3.057zm-1.733 0c0-.975-.776-1.765-1.733-1.765-.958 0-1.734.79-1.734 1.765 0 .975.776 1.765 1.734 1.765.957 0 1.733-.79 1.733-1.765zm-1.987 10.33a.856.856 0 01-1.226 0 .894.894 0 010-1.248l10.4-10.588a.855.855 0 011.226 0 .894.894 0 010 1.248l-10.4 10.588zm5.454-1.506c0 .642.168 1.245.463 1.764A3.455 3.455 0 0012.133 30c1.284 0 2.404-.71 3.003-1.765a3.561 3.561 0 00.464-1.764c0-1.95-1.552-3.53-3.467-3.53-1.914 0-3.466 1.58-3.466 3.53zm3.466 1.764c-.957 0-1.733-.79-1.733-1.764 0-.975.776-1.765 1.733-1.765.958 0 1.734.79 1.734 1.765 0 .974-.776 1.764-1.734 1.764zm5.2-20.294v-7.5l8.234 8.383H18.2a.875.875 0 01-.867-.883z" fill="#201311"/></svg>
